src/actions/22/mail-reply-sender.svg

<svg xmlns="http://www.w3.org/2000/svg" viewBox="0 0 22 22">
  <defs id="defs3051">
    <style type="text/css" id="current-color-scheme">
      .ColorScheme-Text {
        color:#2e3440;
      }
      </style>
  </defs>
 <path 
    style="fill:currentColor;fill-opacity:1;stroke:none" 
    d="M 1 3 L 1 12 L 2 12 L 2 4.2226562 L 2 4 L 2.0488281 4 L 2.2714844 4.2226562 L 8.0234375 9.9765625 L 6 12 L 7.4140625 12 L 8.7304688 10.683594 L 10.183594 12.134766 L 11 12.949219 L 11.001953 12.949219 L 11.816406 12.134766 L 13.269531 10.683594 L 19.537109 16.951172 L 20 17.414062 L 20 18 L 14 18 L 8 18 L 8 19 L 14 19 L 20 19 L 21 19 L 21 18.414062 L 21 18 L 21 12 L 21 4 L 21 3 L 20 3 L 19.537109 3 L 2.4628906 3 L 2 3 L 1.0488281 3 L 1 3 z M 3.4628906 4 L 18.537109 4 L 11 11.537109 L 3.4628906 4 z M 19.951172 4 L 20 4 L 20 4.2226562 L 20 12 L 20 16 L 13.976562 9.9765625 L 19.728516 4.2226562 L 19.951172 4 z M 4 13 L 1 16 L 4 19 L 4 17 L 5 17 L 6 17 L 6 15 L 5 15 L 4 15 L 4 13 z "
    class="ColorScheme-Text"
    />  
</svg>

<svg viewBox="0 0 22 22" xmlns="http://www.w3.org/2000/svg">
 <defs>
  <style type="text/css">.ColorScheme-Text {
        color:#2e3440;
      }</style>
 </defs>
 <path class="ColorScheme-Text" d="m1 3v9h1v-7.7773-0.22266h0.048828l0.22266 0.22266 5.752 5.7539-2.0234 2.0234h1.4141l1.3164-1.3164 1.4531 1.4512 0.81641 0.81445h0.001953l0.81445-0.81445 1.4531-1.4512 6.7305 6.7305v0.58594h-6-6v1h6 6 1v-0.58594-0.41406-6-8-1h-1-0.46289-17.074-0.46289-0.95117-0.048828zm2.4629 1h15.074l-7.5371 7.5371-7.5371-7.5371zm16.488 0h0.048828v0.22266 7.7773 4l-6.0234-6.0234 5.752-5.7539 0.22266-0.22266zm-15.951 9-3 3 3 3v-2h1 1v-2h-1-1v-2z" fill="currentColor"/>
</svg>
